assets/images/ico_star.svg

<svg width="13" height="14" viewBox="0 0 13 14" fill="none" xmlns="http://www.w3.org/2000/svg">
<path d="M0.0382996 5.41476C0.0826654 5.2665 0.166605 5.13527 0.279837 5.03714C0.393068 4.93901 0.530675 4.87823 0.675799 4.86226L4.19142 4.45476L5.63986 1.01476C5.6993 0.872818 5.796 0.752274 5.91828 0.667686C6.04056 0.583098 6.18318 0.538086 6.32892 0.538086C6.47466 0.538086 6.61729 0.583098 6.73957 0.667686C6.86184 0.752274 6.95854 0.872818 7.01799 1.01476L8.46642 4.45476L11.982 4.86226C12.1269 4.87926 12.264 4.94049 12.3771 5.0386C12.4901 5.1367 12.5741 5.26751 12.6192 5.41532C12.6642 5.56314 12.6683 5.72167 12.631 5.8719C12.5936 6.02213 12.5164 6.15767 12.4086 6.26226L9.79064 8.79476L10.5125 12.4848C10.5419 12.6368 10.5296 12.7946 10.477 12.9394C10.4245 13.0842 10.3339 13.2097 10.2162 13.301C10.0985 13.3922 9.95858 13.4454 9.81328 13.454C9.66797 13.4627 9.5234 13.4265 9.39689 13.3498L6.32892 11.4748L3.26096 13.3498C3.13444 13.4265 2.98988 13.4627 2.84457 13.454C2.69927 13.4454 2.55938 13.3922 2.44166 13.301C2.32394 13.2097 2.23338 13.0842 2.18083 12.9394C2.12827 12.7946 2.11595 12.6368 2.14533 12.4848L2.86721 8.79476L0.249237 6.26226C0.140545 6.15823 0.062686 6.02263 0.0252151 5.87208C-0.0122557 5.72153 -0.0077076 5.56259 0.0382996 5.41476Z" fill="#E74386"/>
</svg>

<svg width="13" height="14" fill="none" xmlns="http://www.w3.org/2000/svg"><path d="M.038 5.415a.804.804 0 01.242-.378.726.726 0 01.396-.175l3.515-.407 1.449-3.44a.793.793 0 01.278-.347.721.721 0 01.822 0 .793.793 0 01.278.347l1.448 3.44 3.516.407a.733.733 0 01.395.177.811.811 0 01.242.376.86.86 0 01.012.457.819.819 0 01-.222.39L9.79 8.795l.721 3.69c.03.152.018.31-.035.454a.803.803 0 01-.26.362.719.719 0 01-.82.049l-3.068-1.875L3.26 13.35a.719.719 0 01-.82-.049.803.803 0 01-.26-.362.858.858 0 01-.036-.454l.722-3.69L.25 6.262a.81.81 0 01-.224-.39.851.851 0 01.013-.457z" fill="#E74386"/></svg>
